X: 3510
T: Biddy The Bold
R: jig
M: 6/8
K: Amajor
|:ded g2f|agf efg|dBG DGB|cBc A2d|
ded g2f|agf efg|dBG DGB|A2G G3:|

